apps/www/public/images/ga/enterprise/1-password--dark.svg

<svg width="353" height="67" viewBox="0 0 353 67" fill="none" xmlns="http://www.w3.org/2000/svg">
<path fill-rule="evenodd" clip-rule="evenodd" d="M20.4575 10.43V47.691C20.4575 48.855 20.5305 49.073 21.6255 49.145L27.6075 49.655V55.404H2.00048V49.656L8.27348 49.146C9.29548 49.073 9.44148 48.782 9.44148 47.691V22.564C9.44148 21.521 8.65348 21.694 3.16948 23.543L1.14648 17.576L13.6795 10.43H20.4575ZM44.6375 10.655H48.9435C54.1215 10.655 58.4265 11.891 58.4265 18.877C58.4265 27.099 53.1015 28.19 48.2865 28.19H44.6375V10.655ZM49.9635 35.975H44.6375V47.618C44.6375 48.783 44.7115 48.928 45.8065 49.073L56.2385 49.655V55.403H27.6395V49.655L32.2355 49.145C33.2555 49.001 33.4035 48.783 33.4035 47.691V10.51C33.4035 9.41902 33.2565 9.12702 32.2355 9.05402L27.6395 8.54502V2.72402H52.3715C65.8695 2.72402 69.9535 9.85502 69.9535 18.222C69.9535 30.882 62.2945 35.976 49.9635 35.976V35.975ZM90.8285 45.8C89.1515 47.036 86.6705 48.42 84.1895 48.42C81.7825 48.42 80.0315 47.328 80.0315 44.417C80.0315 41.507 81.5635 40.415 85.8665 40.125L90.8285 39.761V45.8ZM124.366 31.903C130.129 33.212 136.623 35.25 136.623 43.763C136.623 52.639 129.401 56.278 120.135 56.278C114.135 56.278 108.269 54.854 106.223 53.934V55.404H92.7985L92.0685 51.475L91.7035 51.403C88.9315 54.095 85.2835 56.278 79.4465 56.278C70.2555 56.278 68.7945 50.021 68.7945 45.508C68.7945 38.233 73.3195 34.886 82.4385 34.304L90.8285 33.722V29.72C90.8285 26.3 90.4645 23.972 85.9395 23.972C82.4395 23.972 80.6145 24.481 80.6145 28.847L70.3265 27.973C70.3265 18.151 79.3015 16.767 86.0135 16.767C97.1035 16.767 101.553 19.752 101.553 29.938V47.619C101.553 48.783 101.626 48.929 102.72 49.074L105.689 49.567V43.107L113.495 43.69L114.225 47.837C114.297 48.492 114.445 48.783 115.101 48.928C115.976 49.22 117.946 49.656 120.719 49.656C124.585 49.656 126.773 48.566 126.773 45.873C126.773 42.963 123.855 42.089 120.135 41.434C114.007 40.343 105.981 39.034 105.981 29.502C105.981 20.479 113.714 16.767 122.104 16.767C127.867 16.767 133.485 18.078 135.529 18.877V29.428L127.722 28.92L126.992 25.135C126.92 24.553 126.773 24.263 126.264 24.117C125.315 23.827 123.564 23.535 121.594 23.535C117.946 23.535 115.903 24.917 115.903 27.245C115.903 30.229 119.916 30.883 124.366 31.903ZM336.389 44.563C334.419 46.237 331.72 47.692 329.24 47.692C324.642 47.692 322.6 43.762 322.6 36.705C322.6 30.229 324.715 25.208 330.115 25.208C332.229 25.208 334.565 26.154 336.389 27.392V44.563ZM348.499 49.147L352 49.657V55.405H338.43L337.702 51.33L337.191 51.256C334.127 54.24 330.553 56.277 325.227 56.277C316.619 56.277 311.073 50.82 311.073 36.923C311.073 22.298 318.44 16.768 326.539 16.768C330.771 16.768 334.053 18.223 336.827 20.261V9.20002C336.827 8.47202 336.534 7.96302 335.878 7.74502L331.865 6.36202L332.667 0.468018H347.332V47.763C347.332 48.855 347.405 49.002 348.499 49.147ZM225.642 23.898C224.622 24.043 224.184 24.408 223.892 25.353L214.919 55.403H203.39L197.7 31.03H197.263L191.499 55.404H178.366L169.173 25.282C168.883 24.408 168.516 24.262 167.641 24.044L166.931 23.893V29.428L159.125 28.92L158.395 25.135C158.323 24.553 158.176 24.263 157.667 24.117C156.717 23.827 154.967 23.535 152.997 23.535C149.349 23.535 147.305 24.917 147.305 27.245C147.305 30.229 151.319 30.885 155.769 31.903C161.532 33.212 168.026 35.25 168.026 43.763C168.026 52.64 160.804 56.278 151.537 56.278C144.898 56.278 138.405 54.531 137.091 53.658V43.108L144.898 43.69L145.628 47.837C145.7 48.492 145.848 48.783 146.504 48.928C147.379 49.22 149.349 49.656 152.122 49.656C155.987 49.656 158.176 48.566 158.176 45.873C158.176 42.963 155.258 42.089 151.537 41.434C145.409 40.343 137.384 39.034 137.384 29.502C137.384 20.479 145.117 16.767 153.507 16.767C158.272 16.767 162.933 17.663 165.561 18.426L165.745 17.496H184.203V23.535L180.117 23.972L185.954 44.417H186.465L192.957 18.441H203.975L210.25 44.417H210.687L216.159 23.972L212 23.535L212.947 17.496H228.27V19.641C227.36 20.9785 226.558 22.3875 225.874 23.854L225.642 23.898ZM301.082 25.717C299.186 25.717 296.925 27.317 295.83 28.264V47.545C295.83 48.709 295.904 48.927 296.999 49.001L304.22 49.582V55.404H280.362V49.51L283.647 49.073C284.667 48.927 284.813 48.709 284.813 47.618V26.298C284.813 25.498 284.594 24.989 283.866 24.771L280.356 23.541C280.243 23.303 280.119 23.073 280 22.841L280.729 17.495H293.569L294.444 23.315H294.882C297.289 19.605 300.5 16.767 305.169 16.767C306.846 16.767 310.202 17.058 311.516 17.422V30.665L302.762 30.374L302.033 26.517C301.887 25.862 301.667 25.717 301.082 25.717Z" fill="#EDEDED"/>
<path fill-rule="evenodd" clip-rule="evenodd" d="M253 12C266.255 12 277 22.745 277 36C277 49.255 266.255 60 253 60C239.745 60 229 49.255 229 36C229 22.745 239.745 12 253 12Z" fill="#198CFF"/>
<path fill-rule="evenodd" clip-rule="evenodd" d="M223 36C223 19.431 236.431 6 253 6C269.569 6 283 19.431 283 36C283 52.57 269.569 66 253 66C236.431 66 223 52.57 223 36ZM229 36C229 49.255 239.745 60 253 60C266.255 60 277 49.255 277 36C277 22.745 266.255 12 253 12C239.745 12 229 22.745 229 36Z" fill="white"/>
<path opacity="0.5" d="M222 36C222 53.121 235.88 67 253 67C270.12 67 284 53.121 284 36C284 18.88 270.12 5 253 5C235.88 5 222 18.88 222 36ZM223 36C223 19.433 236.43 6 253 6C269.57 6 283 19.433 283 36C283 52.567 269.57 66 253 66C236.43 66 223 52.567 223 36ZM230 35.998C230 48.7 240.298 58.996 253 58.996C265.702 58.996 276 48.7 276 35.998C276 23.297 265.702 13 253 13C240.298 13 230 23.297 230 35.998ZM229 36C229 22.747 239.744 12 253 12C266.256 12 277 22.747 277 36C277 49.253 266.257 60 253 60C239.743 60 229 49.253 229 36Z" fill="black"/>
<path fill-rule="evenodd" clip-rule="evenodd" d="M263.32 61.0781C272.449 57.1871 278.848 48.1511 278.848 37.6221C278.848 23.5401 267.402 12.1241 253.283 12.1241C239.164 12.1241 227.719 23.5401 227.719 37.6221C227.719 51.6621 239.097 63.0491 253.159 63.1161C253.115 63.1171 253.073 63.1201 253.03 63.1201C238.212 63.1201 226.2 51.1391 226.2 36.3601C226.2 21.5811 238.212 9.6001 253.03 9.6001C267.848 9.6001 279.86 21.5811 279.86 36.3601C279.86 47.5031 273.03 57.0511 263.32 61.0781ZM252.512 63.4201C269.065 63.4201 282.483 50.0371 282.483 33.5291C282.483 31.9891 282.366 30.4771 282.141 29.0001C282.698 31.2781 283 33.6561 283 36.1051C283 52.6151 269.581 65.9961 253.029 65.9961C238.019 65.9961 225.588 54.9931 223.4 40.6341C226.598 53.7111 238.415 63.4201 252.512 63.4201Z" fill="black" fill-opacity="0.1"/>
<path fill-rule="evenodd" clip-rule="evenodd" d="M253 18C262.941 18 271 26.059 271 36C271 45.941 262.941 54 253 54C243.059 54 235 45.941 235 36C235 26.059 243.059 18 253 18Z" fill="#F2F2F2"/>
<path d="M253 18C243.059 18 235 26.059 235 36C235 45.941 243.059 54 253 54C262.941 54 271 45.941 271 36C271 26.059 262.941 18 253 18ZM253 17C263.493 17 272 25.507 272 36C272 46.494 263.493 55 253 55C242.507 55 234 46.494 234 36C234 25.507 242.507 17 253 17Z" fill="black" fill-opacity="0.25"/>
<path fill-rule="evenodd" clip-rule="evenodd" d="M261 36C261 38.1217 260.157 40.1566 258.657 41.6569C257.157 43.1571 255.122 44 253 44C250.878 44 248.843 43.1571 247.343 41.6569C245.843 40.1566 245 38.1217 245 36C245 33.8783 245.843 31.8434 247.343 30.3431C248.843 28.8429 250.878 28 253 28C255.122 28 257.157 28.8429 258.657 30.3431C260.157 31.8434 261 33.8783 261 36Z" fill="black" fill-opacity="0.05"/>
<path d="M260 36C260 34.1435 259.262 32.363 257.95 31.0503C256.637 29.7375 254.857 29 253 29C251.143 29 249.363 29.7375 248.05 31.0503C246.737 32.363 246 34.1435 246 36C246 37.8565 246.737 39.637 248.05 40.9497C249.363 42.2625 251.143 43 253 43C254.857 43 256.637 42.2625 257.95 40.9497C259.262 39.637 260 37.8565 260 36ZM261 36C261 38.1217 260.157 40.1566 258.657 41.6569C257.157 43.1571 255.122 44 253 44C250.878 44 248.843 43.1571 247.343 41.6569C245.843 40.1566 245 38.1217 245 36C245 33.8783 245.843 31.8434 247.343 30.3431C248.843 28.8429 250.878 28 253 28C255.122 28 257.157 28.8429 258.657 30.3431C260.157 31.8434 261 33.8783 261 36Z" fill="black" fill-opacity="0.15"/>
<path d="M261 36C261 33.8783 260.157 31.8434 258.657 30.3431C257.157 28.8429 255.122 28 253 28C250.878 28 248.843 28.8429 247.343 30.3431C245.843 31.8434 245 33.8783 245 36C245 38.1217 245.843 40.1566 247.343 41.6569C248.843 43.1571 250.878 44 253 44C255.122 44 257.157 43.1571 258.657 41.6569C260.157 40.1566 261 38.1217 261 36ZM262 36C262 38.3869 261.052 40.6761 259.364 42.364C257.676 44.0518 255.387 45 253 45C250.613 45 248.324 44.0518 246.636 42.364C244.948 40.6761 244 38.3869 244 36C244 33.6131 244.948 31.3239 246.636 29.636C248.324 27.9482 250.613 27 253 27C255.387 27 257.676 27.9482 259.364 29.636C261.052 31.3239 262 33.6131 262 36Z" fill="white"/>
<path fill-rule="evenodd" clip-rule="evenodd" d="M249 32.358V24H257V37.93L255 39.786L257 41.642V50H249V36.071L251 34.214L249 32.358Z" fill="white"/>
<path fill-rule="evenodd" clip-rule="evenodd" d="M249 31.358V23H257V36.93L255 38.786L257 40.642V49H249V35.071L251 33.214L249 31.358Z" fill="#4D4D4D"/>
<path fill-rule="evenodd" clip-rule="evenodd" d="M250 32.215V25H256V37.358L254.5 39.071V40.079L256 41.988V49H250V36.62L251.5 34.943V33.929L250 32.215Z" fill="#808080"/>
</svg>

<svg xmlns="http://www.w3.org/2000/svg" width="353" height="67" fill="none" viewBox="0 0 353 67"><path fill="#ededed" fill-rule="evenodd" d="M20.458 10.43v37.261c0 1.164.073 1.382 1.168 1.454l5.982.51v5.749H2v-5.748l6.273-.51c1.022-.073 1.168-.364 1.168-1.455V22.564c0-1.043-.788-.87-6.272.979l-2.023-5.967L13.68 10.43zm24.18.225h4.306c5.177 0 9.482 1.236 9.482 8.222 0 8.222-5.324 9.313-10.14 9.313h-3.648zm5.326 25.32h-5.326v11.643c0 1.165.074 1.31 1.169 1.455l10.432.582v5.748h-28.6v-5.748l4.597-.51c1.02-.144 1.168-.362 1.168-1.454V10.51c0-1.091-.148-1.383-1.169-1.456l-4.595-.509V2.724H52.37c13.499 0 17.583 7.131 17.583 15.498 0 12.66-7.66 17.754-19.99 17.754zM90.829 45.8c-1.677 1.236-4.158 2.62-6.64 2.62-2.406 0-4.157-1.092-4.157-4.003s1.532-4.002 5.835-4.292l4.962-.364zm33.537-13.897c5.763 1.309 12.257 3.347 12.257 11.86 0 8.876-7.222 12.515-16.488 12.515-6 0-11.866-1.424-13.912-2.344v1.47H92.799l-.73-3.929-.365-.072c-2.772 2.692-6.42 4.875-12.257 4.875-9.192 0-10.653-6.257-10.653-10.77 0-7.275 4.526-10.622 13.645-11.204l8.39-.582V29.72c0-3.42-.364-5.748-4.89-5.748-3.5 0-5.324.509-5.324 4.875l-10.288-.874c0-9.822 8.975-11.206 15.686-11.206 11.09 0 15.54 2.985 15.54 13.171v17.681c0 1.164.073 1.31 1.167 1.455l2.969.493v-6.46l7.806.583.73 4.147c.072.655.22.946.876 1.091.875.292 2.845.728 5.618.728 3.866 0 6.054-1.09 6.054-3.783 0-2.91-2.918-3.784-6.638-4.439-6.128-1.091-14.154-2.4-14.154-11.932 0-9.023 7.733-12.735 16.123-12.735 5.763 0 11.381 1.311 13.425 2.11v10.551l-7.807-.508-.73-3.785c-.072-.582-.219-.872-.728-1.018-.949-.29-2.7-.582-4.67-.582-3.648 0-5.691 1.382-5.691 3.71 0 2.984 4.013 3.638 8.463 4.658m212.023 12.66c-1.97 1.674-4.669 3.129-7.149 3.129-4.598 0-6.64-3.93-6.64-10.987 0-6.476 2.115-11.497 7.515-11.497 2.114 0 4.45.946 6.274 2.184zm12.11 4.584 3.501.51v5.748h-13.57l-.728-4.075-.511-.074c-3.064 2.984-6.638 5.021-11.964 5.021-8.608 0-14.154-5.457-14.154-19.354 0-14.625 7.367-20.155 15.466-20.155 4.232 0 7.514 1.455 10.288 3.493V9.2c0-.728-.293-1.237-.949-1.455l-4.013-1.383.802-5.894h14.665v47.295c0 1.092.073 1.239 1.167 1.384M225.642 23.898c-1.02.145-1.458.51-1.75 1.455l-8.973 30.05H203.39L197.7 31.03h-.437l-5.764 24.374h-13.133l-9.193-30.122c-.29-.874-.657-1.02-1.532-1.238l-.71-.151v5.535l-7.806-.508-.73-3.785c-.072-.582-.219-.872-.728-1.018-.95-.29-2.7-.582-4.67-.582-3.648 0-5.692 1.382-5.692 3.71 0 2.984 4.014 3.64 8.464 4.658 5.763 1.309 12.257 3.347 12.257 11.86 0 8.877-7.222 12.515-16.489 12.515-6.639 0-13.132-1.747-14.446-2.62v-10.55l7.807.582.73 4.147c.072.655.22.946.876 1.091.875.292 2.845.728 5.618.728 3.865 0 6.054-1.09 6.054-3.783 0-2.91-2.918-3.784-6.639-4.439-6.128-1.091-14.153-2.4-14.153-11.932 0-9.023 7.733-12.735 16.123-12.735 4.765 0 9.426.896 12.054 1.659l.184-.93h18.458v6.039l-4.086.437 5.837 20.445h.511l6.492-25.976h11.018l6.275 25.976h.437l5.472-20.445-4.159-.437.947-6.039h15.323v2.145a30 30 0 0 0-2.396 4.213zm75.44 1.819c-1.896 0-4.157 1.6-5.252 2.547v19.281c0 1.164.074 1.382 1.169 1.456l7.221.581v5.822h-23.858V49.51l3.285-.437c1.02-.146 1.166-.364 1.166-1.455v-21.32c0-.8-.219-1.309-.947-1.527l-3.51-1.23c-.113-.238-.237-.468-.356-.7l.729-5.346h12.84l.875 5.82h.438c2.407-3.71 5.618-6.548 10.287-6.548 1.677 0 5.033.291 6.347.655v13.243l-8.754-.291-.729-3.857c-.146-.655-.366-.8-.951-.8" clip-rule="evenodd"/><path fill="#198cff" fill-rule="evenodd" d="M253 12c13.255 0 24 10.745 24 24s-10.745 24-24 24-24-10.745-24-24 10.745-24 24-24" clip-rule="evenodd"/><path fill="#fff" fill-rule="evenodd" d="M223 36c0-16.569 13.431-30 30-30s30 13.431 30 30-13.431 30-30 30-30-13.43-30-30m6 0c0 13.255 10.745 24 24 24s24-10.745 24-24-10.745-24-24-24-24 10.745-24 24" clip-rule="evenodd"/><path fill="#000" d="M222 36c0 17.121 13.88 31 31 31s31-13.879 31-31c0-17.12-13.88-31-31-31s-31 13.88-31 31m1 0c0-16.567 13.43-30 30-30s30 13.433 30 30-13.43 30-30 30-30-13.433-30-30m7-.002c0 12.702 10.298 22.998 23 22.998s23-10.296 23-22.998C276 23.297 265.702 13 253 13s-23 10.297-23 22.998M229 36c0-13.253 10.744-24 24-24s24 10.747 24 24-10.743 24-24 24-24-10.747-24-24" opacity=".5"/><path fill="#000" fill-opacity=".1" fill-rule="evenodd" d="M263.32 61.078c9.129-3.89 15.528-12.927 15.528-23.456 0-14.082-11.446-25.498-25.565-25.498s-25.564 11.416-25.564 25.498c0 14.04 11.378 25.427 25.44 25.494q-.065.003-.129.004c-14.818 0-26.83-11.98-26.83-26.76 0-14.779 12.012-26.76 26.83-26.76s26.83 11.981 26.83 26.76c0 11.143-6.83 20.691-16.54 24.718m-10.808 2.342c16.553 0 29.971-13.383 29.971-29.89 0-1.54-.117-3.053-.342-4.53.557 2.278.859 4.656.859 7.105 0 16.51-13.419 29.891-29.971 29.891-15.01 0-27.441-11.003-29.629-25.362 3.198 13.077 15.015 22.786 29.112 22.786" clip-rule="evenodd"/><path fill="#f2f2f2" fill-rule="evenodd" d="M253 18c9.941 0 18 8.059 18 18s-8.059 18-18 18-18-8.059-18-18 8.059-18 18-18" clip-rule="evenodd"/><path fill="#000" fill-opacity=".25" d="M253 18c-9.941 0-18 8.059-18 18s8.059 18 18 18 18-8.059 18-18-8.059-18-18-18m0-1c10.493 0 19 8.507 19 19s-8.507 19-19 19-19-8.506-19-19 8.507-19 19-19"/><path fill="#000" fill-opacity=".05" fill-rule="evenodd" d="M261 36a8.001 8.001 0 0 1-13.657 5.657 8.001 8.001 0 0 1 11.314-11.314A8 8 0 0 1 261 36" clip-rule="evenodd"/><path fill="#000" fill-opacity=".15" d="M260 36a7.003 7.003 0 0 0-7-7 7 7 0 1 0 7 7m1 0a8.001 8.001 0 0 1-13.657 5.657 8.001 8.001 0 0 1 11.314-11.314A8 8 0 0 1 261 36"/><path fill="#fff" d="M261 36a8.001 8.001 0 0 0-13.657-5.657 8.001 8.001 0 0 0 11.314 11.314A8 8 0 0 0 261 36m1 0a9 9 0 1 1-18 0 9 9 0 0 1 18 0"/><path fill="#fff" fill-rule="evenodd" d="M249 32.358V24h8v13.93l-2 1.856 2 1.856V50h-8V36.071l2-1.857z" clip-rule="evenodd"/><path fill="#4d4d4d" fill-rule="evenodd" d="M249 31.358V23h8v13.93l-2 1.856 2 1.856V49h-8V35.071l2-1.857z" clip-rule="evenodd"/><path fill="gray" fill-rule="evenodd" d="M250 32.215V25h6v12.358l-1.5 1.713v1.008l1.5 1.909V49h-6V36.62l1.5-1.677v-1.014z" clip-rule="evenodd"/></svg>
